icons/square-circle.svg

<svg width="24" height="24" viewBox="0 0 24 24" fill="none" xmlns="http://www.w3.org/2000/svg">
<path fill-rule="evenodd" clip-rule="evenodd" d="M3.75 9C3.75 6.01421 6.01421 3.75 9 3.75H15C17.8858 3.75 20.25 6.11421 20.25 9V15C20.25 17.8858 17.8858 20.25 15 20.25H9C6.11421 20.25 3.75 17.8858 3.75 15V9ZM9 2.25C5.18579 2.25 2.25 5.18579 2.25 9V15C2.25 18.7142 5.28579 21.75 9 21.75H15C18.7142 21.75 21.75 18.7142 21.75 15V9C21.75 5.28579 18.7142 2.25 15 2.25H9ZM8.75 12C8.75 10.2051 10.2051 8.75 12 8.75C13.7949 8.75 15.25 10.2051 15.25 12C15.25 13.7949 13.7949 15.25 12 15.25C10.2051 15.25 8.75 13.7949 8.75 12ZM12 7.25C9.37665 7.25 7.25 9.37665 7.25 12C7.25 14.6234 9.37665 16.75 12 16.75C14.6234 16.75 16.75 14.6234 16.75 12C16.75 9.37665 14.6234 7.25 12 7.25Z" fill="black"/>
</svg>

<svg xmlns="http://www.w3.org/2000/svg" fill="none" viewBox="0 0 24 24">
  <path fill="#000" fill-rule="evenodd" d="M3.75 9c0-2.986 2.264-5.25 5.25-5.25h6c2.886 0 5.25 2.364 5.25 5.25v6c0 2.886-2.364 5.25-5.25 5.25H9c-2.886 0-5.25-2.364-5.25-5.25V9ZM9 2.25C5.186 2.25 2.25 5.186 2.25 9v6c0 3.714 3.036 6.75 6.75 6.75h6c3.714 0 6.75-3.036 6.75-6.75V9c0-3.714-3.036-6.75-6.75-6.75H9ZM8.75 12a3.25 3.25 0 1 1 6.5 0 3.25 3.25 0 0 1-6.5 0ZM12 7.25a4.75 4.75 0 1 0 0 9.5 4.75 4.75 0 0 0 0-9.5Z" clip-rule="evenodd"/>
</svg>
